X: 29513
T: Nine Points Of Knavery, The
R: reel
M: 4/4
K: Edorian
|:e2 ed BddB|A2 FD FAAd|B2 AB defe|dBAF E2 E2:|
Beef e2 eg|fedf afed|Beef e2 ef|afde fe e2|
abaf egfe|dBAF ABde|faef dgfe|dBAF E2 E2||

